src/img/icons/alert-cancel.svg

<svg width="32" height="32" viewBox="0 0 32 32" fill="none" xmlns="http://www.w3.org/2000/svg">
<path d="M16 17.3035L20.7629 22.0668C20.9405 22.2444 21.1554 22.3355 21.4077 22.3402C21.6599 22.3448 21.8796 22.2537 22.0668 22.0668C22.2537 21.8796 22.3472 21.6623 22.3472 21.4147C22.3472 21.1673 22.2537 20.9501 22.0668 20.7629L17.3035 16L22.0668 11.2371C22.2444 11.0595 22.3355 10.8446 22.3402 10.5923C22.3448 10.3401 22.2537 10.1204 22.0668 9.93321C21.8796 9.7463 21.6623 9.65284 21.4147 9.65284C21.1673 9.65284 20.9501 9.7463 20.7629 9.93321L16 14.6965L11.2371 9.93321C11.0595 9.75563 10.8446 9.66451 10.5923 9.65984C10.3401 9.65517 10.1204 9.7463 9.93321 9.93321C9.7463 10.1204 9.65284 10.3377 9.65284 10.5853C9.65284 10.8327 9.7463 11.0499 9.93321 11.2371L14.6965 16L9.93321 20.7629C9.75563 20.9405 9.66451 21.1554 9.65984 21.4077C9.65518 21.6599 9.7463 21.8796 9.93321 22.0668C10.1204 22.2537 10.3377 22.3472 10.5853 22.3472C10.8326 22.3472 11.0499 22.2537 11.2371 22.0668L16 17.3035ZM16.0026 30C14.0762 30 12.2627 29.6326 10.5621 28.8977C8.86147 28.1628 7.37686 27.1614 6.10826 25.8936C4.83991 24.6255 3.83805 23.1415 3.10268 21.4416C2.36756 19.7417 2 17.9287 2 16.0026C2 14.0662 2.36744 12.246 3.10232 10.5422C3.83719 8.83839 4.83856 7.35635 6.10642 6.0961C7.37453 4.83586 8.85853 3.83805 10.5584 3.10268C12.2583 2.36756 14.0713 2 15.9974 2C17.9338 2 19.754 2.36744 21.4578 3.10232C23.1616 3.83719 24.6436 4.83451 25.9039 6.09426C27.1641 7.35402 28.1619 8.83544 28.8973 10.5385C29.6324 12.2416 30 14.0612 30 15.9974C30 17.9238 29.6326 19.7373 28.8977 21.4379C28.1628 23.1385 27.1655 24.6231 25.9057 25.8917C24.646 27.1601 23.1646 28.1619 21.4615 28.8973C19.7584 29.6324 17.9388 30 16.0026 30ZM16 28.1483C19.3843 28.1483 22.2552 26.9672 24.6126 24.6048C26.9697 22.2425 28.1483 19.3742 28.1483 16C28.1483 12.6157 26.9697 9.74482 24.6126 7.38742C22.2552 5.03026 19.3843 3.85168 16 3.85168C12.6258 3.85168 9.75747 5.03026 7.39516 7.38742C5.03284 9.74482 3.85168 12.6157 3.85168 16C3.85168 19.3742 5.03284 22.2425 7.39516 24.6048C9.75747 26.9672 12.6258 28.1483 16 28.1483Z" fill="#131212"/>
</svg>

<svg xmlns="http://www.w3.org/2000/svg" viewBox="0 0 32 32">
  <path fill="currentColor" d="m16 17.303 4.763 4.764a.903.903 0 0 0 .645.273.879.879 0 0 0 .659-.273.895.895 0 0 0 0-1.304L17.303 16l4.764-4.763a.903.903 0 0 0 .273-.645.879.879 0 0 0-.273-.659.895.895 0 0 0-1.304 0L16 14.697l-4.763-4.764a.903.903 0 0 0-.645-.273.878.878 0 0 0-.659.273.895.895 0 0 0 0 1.304L14.697 16l-4.764 4.763a.903.903 0 0 0-.273.645.878.878 0 0 0 .273.659.895.895 0 0 0 1.304 0L16 17.303ZM16.003 30c-1.927 0-3.74-.367-5.44-1.102a14.205 14.205 0 0 1-4.455-3.004 14.202 14.202 0 0 1-3.005-4.452C2.368 19.742 2 17.929 2 16.002c0-1.936.367-3.756 1.102-5.46a14.038 14.038 0 0 1 3.004-4.446 14.307 14.307 0 0 1 4.452-2.993C12.258 2.368 14.071 2 15.998 2c1.936 0 3.756.367 5.46 1.102a14.142 14.142 0 0 1 4.446 2.992 14.14 14.14 0 0 1 2.993 4.445C29.632 12.242 30 14.06 30 15.997c0 1.927-.367 3.74-1.102 5.44a14.308 14.308 0 0 1-2.992 4.455 14.036 14.036 0 0 1-4.444 3.005c-1.704.735-3.523 1.103-5.46 1.103ZM16 28.148c3.384 0 6.255-1.18 8.613-3.543 2.357-2.363 3.535-5.23 3.535-8.605 0-3.384-1.178-6.255-3.535-8.613C22.255 5.03 19.384 3.852 16 3.852c-3.374 0-6.243 1.178-8.605 3.535C5.033 9.745 3.852 12.616 3.852 16c0 3.374 1.18 6.242 3.543 8.605 2.362 2.362 5.23 3.543 8.605 3.543Z"/>
</svg>
